X:13017
T:Pericote (Llanes) (Versin 3)
C:Trad.
M:2/4
L:1/8
Q:1/4=76
K:G
|: GB|d3/2e/ dc|dd ed|B3/2d/ cA|G2 G2|Bd Bd|cA BB|dc Ac|BA G2|G2 :|
